X:1
T:Jesu, gentlest Savior
T:Jesu, gentlest Savior
T:Courtesy of the Cyber Hymnal (http://www.cyberhymnal.org)
T:Courtesy of the Cyber Hymnal (http://www.cyberhymnal.org)
Z:Courtesy of the Cyber Hymnal (http://www.cyberhymnal.org)
%%score { ( 1 2 ) ( 3 4 ) }
L:1/8
Q:1/4=115
M:4/4
K:Eb
V:1 treble nm="P1"
V:2 treble 
V:3 bass nm="P2"
V:4 bass 
V:1
"^Editor: John Henry Fowler""^( Revision: 11-26-2007 )" G2 G2 F2 G2 | A4 F4 | B2 E2 F2 G2 | %3
"^( 1885 )" A8 | e2 c2 B2 A2 | A4 G4 | F2 G2"^John Stainer" A2"^( 1840 - 1901 )" D2 | E8 |] %8
V:2
 E2 E2 D2 =E2 | F4 D4 | E2 E2 E2 D2 | E8 | E2 E2 =E2 F2 | F4 =E4 | F2 E2 C2 B,2 | B,8 |] %8
V:3
 B,2 B,2 B,2 B,2 | C4 B,4 | B,2 E2 B,2 B,2 | A,8 | A,2 A,2 B,2 C2 | _D4 D4 | C2 B,2 A,2 A,2 | %7
 G,8 |] %8
V:4
 E,2 E,2 A,2 G,2 | F,4 B,4 | G,2 C2 B,2 B,,2 | C,8 | C,2 A,2 G,2 F,2 | B,4 B,4 | A,2 G,2 F,2 B,,2 | %7
 E,8 |] %8

